X: 1002
T: Allistrum's March
R: jig
M: 6/8
K: Dmajor
|:F>dd fee|fdB BAG|F>dd fee|fdB B2A:|
|:F>EE FDD|FEd dBA|F>EE FDD|FEd B2A:|
|:d2f e2f|ded dBA|d2f e2f|ded B2A:|
|:~B2A BFF|~B2A BEE|~B2A BFF|1 ~B2A BEE:|2 ~B2A BAG||

